X:10
T:Chanter's Song, The
T:Chanter's Tune, The
T:Song of the Chanter, The
R:march
H:Also played in Amix, #15
Z:id:hn-march-10
M:2/4
L:1/8
K:Dmix
DD AG/E/|DD cB/c/|dA AG/E/|cB/c/ AG/E/|
DD AG/E/|DD cB/c/|dA AG/E/|D2 D2:|
|:A>B cB/c/|A/G/A/B/ cB/c/|dA AG/E/|cB/c/ AG/E/|
DD AG/E/|DD cB/c/|dA AG/E/|D2 D2:|
<end>
<start>
